icons/electronforge.svg

<!--
  - The MIT License (MIT)
  -
  - Copyright (c) 2015-2024 Elior "Mallowigi" Boukhobza
  -
  - Permission is hereby granted, free of charge, to any person obtaining a copy
  - of this software and associated documentation files (the "Software"), to deal
  - in the Software without restriction, including without limitation the rights
  - to use, copy, modify, merge, publish, distribute, sublicense, and/or sell
  - copies of the Software, and to permit persons to whom the Software is
  - furnished to do so, subject to the following conditions:
  -
  - The above copyright notice and this permission notice shall be included in all
  - copies or substantial portions of the Software.
  -
  - THE SOFTWARE IS PROVIDED "AS IS", WITHOUT WARRANTY OF ANY KIND, EXPRESS OR
  - IMPLIED, INCLUDING BUT NOT LIMITED TO THE WARRANTIES OF MERCHANTABILITY,
  - FITNESS FOR A PARTICULAR PURPOSE AND NONINFRINGEMENT. IN NO EVENT SHALL THE
  - AUTHORS OR COPYRIGHT HOLDERS BE LIABLE FOR ANY CLAIM, DAMAGES OR OTHER
  - LIABILITY, WHETHER IN AN ACTION OF CONTRACT, TORT OR OTHERWISE, ARISING FROM,
  - OUT OF OR IN CONNECTION WITH THE SOFTWARE OR THE USE OR OTHER DEALINGS IN THE
  - SOFTWARE.
  -
  -->

<svg  version="1.1" xmlns="http://www.w3.org/2000/svg" viewBox="0 0 474 512" width="16px" height="16px">
  <path fill="#66BB6A" data-iconColor="Electron Forge"
        d="M168.4506378,108.991188c12.0902557,2.2308807,8.727066,20.4577103-3.3631897,18.2268448C69.1899872,109.3964081,2.003356,147.2954712,52.8678474,241.1366272c6.0781288,10.6578064-10.0490189,19.855072-16.1271477,9.1972809C-23.8222408,144.2411804,54.7114601,87.452034,168.4506378,108.991188z M410.304657,288.9428711c85.7249451-104.8280334,47.9732361-182.7847443-55.0996094-184.0601959c-12.2422485-0.1590271-12.4679871,18.3728104-0.2257385,18.5318375c91.2366638-0.3903885,112.9441223,67.1040878,41.1233826,153.5870667C388.1880493,286.6255188,402.6846313,298.0867004,410.304657,288.9428711z M320.1337585,453.3638611c6.265564-10.401886-9.3340149-20.097168-15.9023743-9.5786438c-51.8641205,82.0701294-115.2585144,56.7852173-153.626236-42.1785278c-4.1481781-11.7890625-21.665451-5.6253052-17.5172729,6.1637268C167.0305328,511.4387512,257.0453491,557.112915,320.1337585,453.3638611z M263.3243713,268.7574768c0-19.9960632-21.7955627-32.5614471-39.1378632-22.5634155c-17.3422852,9.9980164-17.3422852,35.1287842,0.0000153,45.1268311C241.5288086,301.3189087,263.3243713,288.75354,263.3243713,268.7574768z M35.475174,352.9976501c3.0216179-82.3795471,123.0222626-187.4575348,264.5336304-223.6151581c12.1512756-2.6416779,8.2139282-20.7529907-3.9373779-18.1113205c-130.70784,28.9397659-285.7718811,145.1322937-279.2530518,246.8211975c-22.6560135,13.6721802-22.4197674,46.8598938,0.6946945,60.1374207c23.3460693,13.4105835,52.6870232-3.443634,52.6870232-30.2647095C70.2000732,367.8053589,53.6229401,353.2761841,35.475174,352.9976501z M419.7736816,417.2279663c16.6845703,10.8548279,40.8153076,5.8839722,50.5544739-13.6000061c11.9880371-23.9830017-6.7154846-52.168335-33.5855103-50.6117859c-25.2254028,1.4612427-40.077301,28.1268005-29.4840698,49.9395752c-81.5023499,35.4589233-232.8935242-23.8721313-321.9048767-118.1847534c-8.1461182-8.9874573-21.8951492,3.4744263-13.7490311,12.4618835C156.028717,390.5855408,327.5725098,466.0730591,419.7736816,417.2279663z M272.3441162,34.9271774c0.0075684-22.9293728-22.9010925-40.7123909-46.0968781-33.1684837c-25.5953979,8.3243685-32.5174255,41.3000717-12.429718,59.2138481c16.899826,15.0709,42.3455353,10.0540848,53.2773895-7.5404243c63.3344116,41.8717003,102.6353149,184.9630127,60.7580566,336.4077454c-3.6223755,11.7228699,14.1225586,17.2059937,17.7449341,5.4831848C383.6504211,272.4102478,363.0648804,90.3902893,272.3441162,34.9271774z"/>
</svg>

<svg xmlns="http://www.w3.org/2000/svg" viewBox="0 0 474 512"><path fill="#66bb6a" d="M168.45 108.991c12.09 2.231 8.728 20.458-3.363 18.227C69.19 109.396 2.003 147.295 52.867 241.137c6.079 10.657-10.048 19.855-16.126 9.197C-23.822 144.24 54.71 87.452 168.45 108.99m241.855 179.952c85.725-104.828 47.973-182.785-55.1-184.06-12.242-.16-12.468 18.372-.226 18.532 91.237-.39 112.944 67.104 41.124 153.587-7.915 9.624 6.582 21.085 14.202 11.94m-90.171 164.42c6.265-10.401-9.334-20.096-15.903-9.578-51.864 82.07-115.258 56.785-153.626-42.178-4.148-11.79-21.665-5.626-17.517 6.163 33.943 103.669 123.957 149.343 187.046 45.594m-56.81-184.606c0-19.996-21.795-32.561-39.137-22.563-17.343 9.998-17.343 35.129 0 45.127 17.342 9.998 39.137-2.567 39.137-22.564m-227.849 84.24c3.022-82.379 123.022-187.457 264.534-223.615 12.151-2.641 8.214-20.752-3.938-18.11C165.364 140.21 10.3 256.402 16.818 358.091c-22.656 13.673-22.42 46.86.695 60.138C40.86 431.64 70.2 414.786 70.2 387.965c0-20.16-16.577-34.689-34.725-34.967m384.299 64.231c16.684 10.855 40.815 5.884 50.554-13.6 11.988-23.983-6.715-52.168-33.585-50.612-25.226 1.461-40.078 28.127-29.484 49.94-81.503 35.459-232.894-23.872-321.905-118.185-8.146-8.987-21.895 3.474-13.75 12.462 84.425 93.353 255.969 168.84 348.17 119.995m-147.43-382.3c.008-22.93-22.901-40.713-46.097-33.17-25.595 8.325-32.517 41.3-12.43 59.215 16.9 15.07 42.346 10.054 53.278-7.54 63.334 41.87 102.635 184.962 60.758 336.407-3.622 11.723 14.123 17.206 17.745 5.483C383.65 272.41 363.065 90.39 272.344 34.927" data-iconColor="Electron Forge"/></svg>
